<html>

<script src="https://unpkg.com/@strudel/embed@latest"></script>
<strudel-repl>
  <!--

setcpm(120/4)

$drums: s(" bd sd bd sd ").color("red").gain(.3)._punchcard()
$_: seq(
"< d2 - d2 - d2 - d2 -     b1  -  -  -  b1  -  b1 - >".note().sound("piano"),
"< -  - -  - -  - -  e2    e2 e2  e2 e2 f2  f2 f2 g2    >".note().sound("piano").gain(2),
)._punchcard()

$: stepcat(
  // intro
 "d2 - d2 - d2 - d2 -     b1  -  b1  -  b1  -  b1 - ".color("red"),
  // couplet 1
 "d2 - d2 - d2 - d2 -     b1  -  b1  -  b1  -  b1 - ".color("blue"),
 "d2 - d2 - d2 - d2 -     b1  -  b1  -  b1  -  b1 - ".color("blue"),
 "g2 - g2 - a2 - a2 -     b2  -  b2  -  a2  -  a2 - ".color("blue"),
 "g2 - g2 - a2 - a2 -     d3  -  d3  -  -   -  -  - ".color("blue"),
  )
  .note().sound("piano").pace(4)._punchcard()



// $bass: n(irand(10).sub(7).seg(16)).scale("c:minor")

-->

</strudel-repl>

</html>
